X:1
T:Wigan (Wesley), 66.64.884
T:Wigan (Wesley), 66.64.884
T:Samuel Sebastian Wesley (1810-1876)
T:Public Domain Courtesy of the Cyber Hymnal™
C:Samuel Sebastian Wesley (1810-1876)
Z:Public Domain
Z:Courtesy of the Cyber Hymnal™
%%score ( 1 2 ) ( 3 4 )
L:1/8
Q:1/4=110
M:4/4
K:Ab
V:1 treble 
V:2 treble 
V:3 bass 
V:4 bass 
V:1
 [CF]2 | [CA]2 [CG]2 [=EB]2 [FA]2 | [Fd]6 [Fc]2 | [GB]2 [FA]2 (GF) [C=E]2 | [CF]6 [CA]2 | %5
 [EG]2 [=DF]2 [DG]2 [DG]2 | [Gc]4 C4 | [CE]4 [=B,=D]4 | C6 C2 | [CF]2 [CG]2 [CA]2 [B,B]2 | %10
 [CB]2 [C=A]2 [DB]2 !breath![DF]2 | [DB]2 [_Gc]2 [Fd]2 [Fc]2 | [FB]2 [FA]2 [=EG]2 [Fc]2 | %13
 ([=EB]2 A2) z2 x6 | F6 |] %15
V:2
 x2 | x8 | x8 | x4 D2 x2 | x8 | x8 | x4 C4 | x8 | C6 C2 | x8 | x8 | x8 | x8 | x2 F4 G4 =E2 | F6 |] %15
V:3
 [F,A,]2 | [F,C]2 [=E,C]2 [G,C]2 [F,C]2 | B,6 [A,C]2 | [=E,C]2 [F,C]2 (B,A,) [C,G,]2 | %4
 [F,,F,A,]6 [F,C]2 | [G,C]2 [A,C]2 [G,C]2 [F,=B,]2 | [E,C]4 [A,,F,]4 | [G,,G,]4 (G,2 F,2) | %8
 [C,=E,]6 E,2 | [A,,F,]2 [C,=E,]2 F,2 [D,F,]2 | F,2 F,2 [B,,F,]2 B,2 | %11
 [_G,B,]2 [E,=A,]2 [B,,B,]2 [=A,,C]2 | [B,,D]2 [=B,,=D]2 [C,=E]2 [A,,C]2 | C4 (C2 B,2) x4 | %14
 [F,,A,]6 |] %15
V:4
 x2 | x8 | B,6 x2 | x4 B,,2 x2 | x8 | x8 | x8 | x4 G,,4 | x6 (C,B,,) | x4 F,2 x2 | %10
 F,2 F,2 (B,A,) x2 | x8 | x8 | (G,,2 F,,2) C,4 x4 | x6 |] %15

